X: 2244
T: the_Masons_Apron,   a Reel.
%R: reel
B: Niel Gow & Sons "Complete Repository" v.2 p.24 #4 (and top 2 staffs of p.25)
Z: 2021 John Chambers <jc:trillian.mit.edu>
M: C|
L: 1/8
K: A
% - - - - - - - - - -
V: 1 staves=2
e |\
c<A A>B A>BAF | EFAB {AB}c2TBA | dB- B>c BcBA | BAde {g}f2ed || c<A A>B A>BAF |
EFAB {AB}c2TBA | Bcde Tfefa | A/A/A Tc>B A2A |]| e | cAeA fAeA | cAeA (fed)c | dBfB aBfB |
dBfB {g}f2ed || cAeA fAeA | cAeA (fe)dc | Bcde Tfefa | A/A/A Tc>B A2A |]
% - - - - - - - - - -
% Voice 2 preserves the staff layout in the book.
V: 2 clef=bass middle=d
z |
a2a2 a2a2 | a2a2 a2a2 | b2b2 b2b2 | b2b2 b2b2 || a2a2 a2a2 |
a2a2 a2a2 | b2c'2 d'2d'2 | e'2e2 a2a |]| z | a2a2 a2a2 | a2a2 a2a2 | b2b2 b2b2 | 
b2b2 b2b2 || a2a2 a2a2 | a2a2 a2a2 | b2c'2 d'2d'2 | e'2e2 a2a |]
